packages/gestalt-icons-android/vr-theme/ic_vr_service-dropbox_gestalt.svg

<svg width="24" height="24" viewBox="0 0 24 24" fill="none" xmlns="http://www.w3.org/2000/svg">
<path d="M0 5.5939L5.99989 1.74997L11.9988 5.5939L5.99989 9.43783L0 5.5939Z" fill="black"/>
<path d="M5.99989 9.43783L11.9988 13.2818L5.99989 17.1257L0 13.2818L5.99989 9.43783Z" fill="black"/>
<path d="M11.9988 5.5939L17.9994 1.74997L23.9993 5.5939L17.9995 9.43778L24 13.2815L17.9991 17.1254L11.9988 13.2818L17.9995 9.43778L11.9988 5.5939Z" fill="black"/>
<path d="M11.9988 22.2499L5.99989 18.406L11.9988 14.563L17.9997 18.406L11.9988 22.2499Z" fill="black"/>
</svg>

<svg xmlns="http://www.w3.org/2000/svg" width="24" height="24"><path d="m0 5.6 6-3.85 6 3.84-6 3.85zm6 3.84 6 3.84-6 3.85-6-3.85zm6-3.85 6-3.84 6 3.84-6 3.85 6 3.84-6 3.85-6-3.85 6-3.84zm0 16.66-6-3.84 6-3.85 6 3.85z"/></svg>
